icons/linear-ele-office-doc-document-copy.svg

<svg xmlns="http://www.w3.org/2000/svg" width="32px" height="32px" viewBox="0 0 32 32" version="1.1">
    <title>linear-ele-office-doc-document-copy</title>
    <g id="linear-ele-office-doc-document-copy" stroke-width="1" fill-rule="evenodd">
        <path d="M23,8 C23.5522847,8 24,8.44771525 24,9 L24,29 C24,29.5522847 23.5522847,30 23,30 L3,30 C2.44771525,30 2,29.5522847 2,29 L2,9 C2,8.44771525 2.44771525,8 3,8 L23,8 Z M22,10 L4,10 L4,28 L22,28 L22,10 Z M29,2 C29.5522847,2 30,2.44771525 30,3 L30,25 C30,25.5522847 29.5522847,26 29,26 L26,26 L26,24 L28,24 L28,4 L12,4 L12,6 L10,6 L10,3 C10,2.44771525 10.4477153,2 11,2 L29,2 Z M17,21 C17.5522847,21 18,21.4477153 18,22 C18,22.5522847 17.5522847,23 17,23 L9,23 C8.44771525,23 8,22.5522847 8,22 C8,21.4477153 8.44771525,21 9,21 L17,21 Z M17,15 C17.5522847,15 18,15.4477153 18,16 C18,16.5522847 17.5522847,17 17,17 L9,17 C8.44771525,17 8,16.5522847 8,16 C8,15.4477153 8.44771525,15 9,15 L17,15 Z" id="&#24418;&#29366;" fill-rule="nonzero" />
    </g>
</svg>

<svg xmlns="http://www.w3.org/2000/svg" viewBox="0 0 32 32"><path fill="currentColor" d="M23 8a1 1 0 0 1 1 1v20a1 1 0 0 1-1 1H3a1 1 0 0 1-1-1V9a1 1 0 0 1 1-1zm-1 2H4v18h18zm7-8a1 1 0 0 1 1 1v22a1 1 0 0 1-1 1h-3v-2h2V4H12v2h-2V3a1 1 0 0 1 1-1zM17 21a1 1 0 0 1 0 2H9a1 1 0 0 1 0-2zm0-6a1 1 0 0 1 0 2H9a1 1 0 0 1 0-2z"/></svg>
